src/16/actions/compass.svg

<svg xmlns="http://www.w3.org/2000/svg" viewBox="0 0 16 16">
  <defs id="defs3051">
    <style type="text/css" id="current-color-scheme">
      .ColorScheme-Text {
        color:#5d656b;
      }
      </style>
  </defs>
 <path style="fill:currentColor;fill-opacity:1;stroke:none" 
     d="M 8 2 C 4.6862917 2 2 4.6862913 2 8 C 2 11.313709 4.6862917 14 8 14 C 11.313708 14 14 11.313709 14 8 C 14 4.6862913 11.313708 2 8 2 z M 8 3 C 10.761424 3 13 5.2385761 13 8 C 13 10.761424 10.761424 13 8 13 C 5.2385764 13 3 10.761424 3 8 C 3 5.2385761 5.2385764 3 8 3 z M 11 5 L 8 6 C 6.9527957 6 5.9999895 6.9527776 6 8 L 5 11 L 8 10 C 9.0471792 10 9.9999715 9.0471474 10 8 L 11 5 z M 8 7 C 8.5236148 7 9.0000247 7.4763513 9 8 C 8.9999857 8.5235737 8.5235893 9 8 9 C 7.47641 9 7.0000144 8.5235737 7 8 C 6.9999752 7.4763513 7.4763852 7 8 7 z "
     class="ColorScheme-Text"
     />
</svg>

<svg xmlns="http://www.w3.org/2000/svg" viewBox="0 0 16 16"><path d="M8 2a6 6 0 1 0 0 12A6 6 0 0 0 8 2zm0 1a5 5 0 1 1 0 10A5 5 0 0 1 8 3zm3 2L8 6c-1.047 0-2 .953-2 2l-1 3 3-1c1.047 0 2-.953 2-2l1-3zM8 7c.524 0 1 .476 1 1s-.476 1-1 1-1-.476-1-1 .476-1 1-1z" fill="currentColor" color="#5d656b"/></svg>
